assets/images/star.svg

<svg width="23" height="21" viewBox="0 0 23 21" fill="none" xmlns="http://www.w3.org/2000/svg">
<path d="M11.2895 0.110352L14.4879 6.99755L22.0264 7.9112L16.4647 13.0814L17.9253 20.5332L11.2895 16.8414L4.6537 20.5332L6.11428 13.0814L0.552547 7.9112L8.09104 6.99755L11.2895 0.110352Z" fill="#D9315A"/>
</svg>

<svg width="23" height="21" viewBox="0 0 23 21" fill="none" xmlns="http://www.w3.org/2000/svg"><path d="m11.29.11 3.198 6.888 7.538.913-5.561 5.17 1.46 7.452-6.636-3.692-6.635 3.692 1.46-7.452-5.561-5.17 7.538-.913L11.29.11Z" fill="#D9315A"/></svg>
